X:1
T: The Maid of Athlone
C:
R:Reel
Q: 232
K:D
M:4/4
L:1/8
A3G FA dB|AG FD EA, ((3A,B,A,)|AB AG FA dB|AB ca fd d2|
A3G FA dB|AG FD EA, ((3A,B,A,)|AB AG FA dB|AB ca fd d2|
|:f2 df e2 df|af eg fB Bg|f2 df e2 dA|((3Bcd) AG FD Dg|
f2 df e2 df|af eg fB B2|AF AB de ba|((3fga) eg fd dB:|
A3G FA dB|AG FD EA, ((3A,B,A,)|AB AG FA dB|AB ca fd d2|
A3G FA dB|AG FD EA, ((3A,B,A,)|AB AG FA dB|AB ca fd d2||
